images/Instagram.svg

<svg width="32" height="32" viewBox="0 0 32 32" fill="none" xmlns="http://www.w3.org/2000/svg">
<rect width="32" height="32" rx="16" fill="url(#paint0_radial_391_2351)"/>
<path d="M12.6672 16C12.6672 14.1591 14.1591 12.6664 16 12.6664C17.8409 12.6664 19.3336 14.1591 19.3336 16C19.3336 17.8409 17.8409 19.3336 16 19.3336C14.1591 19.3336 12.6672 17.8409 12.6672 16ZM10.8651 16C10.8651 18.836 13.164 21.1349 16 21.1349C18.836 21.1349 21.1349 18.836 21.1349 16C21.1349 13.164 18.836 10.8651 16 10.8651C13.164 10.8651 10.8651 13.164 10.8651 16ZM20.1382 10.6615C20.1381 10.8989 20.2084 11.1309 20.3401 11.3283C20.4719 11.5257 20.6593 11.6796 20.8785 11.7705C21.0977 11.8614 21.339 11.8852 21.5718 11.839C21.8046 11.7928 22.0185 11.6786 22.1863 11.5109C22.3542 11.3431 22.4686 11.1293 22.515 10.8966C22.5614 10.6638 22.5377 10.4225 22.447 10.2032C22.3563 9.98392 22.2025 9.79644 22.0052 9.6645C21.808 9.53257 21.576 9.4621 21.3386 9.462H21.3382C21.02 9.46215 20.715 9.58856 20.49 9.81347C20.265 10.0384 20.1384 10.3434 20.1382 10.6615ZM11.96 24.1398C10.985 24.0954 10.4551 23.933 10.103 23.7958C9.63608 23.614 9.30296 23.3975 8.95272 23.0478C8.60248 22.698 8.38568 22.3652 8.20472 21.8983C8.06744 21.5463 7.90504 21.0162 7.86072 20.0413C7.81224 18.9872 7.80256 18.6706 7.80256 16.0001C7.80256 13.3296 7.81304 13.0138 7.86072 11.9589C7.90512 10.9839 8.06872 10.4549 8.20472 10.1018C8.38648 9.63496 8.60296 9.30184 8.95272 8.9516C9.30248 8.60136 9.63528 8.38456 10.103 8.2036C10.455 8.06632 10.985 7.90392 11.96 7.8596C13.0141 7.81112 13.3307 7.80144 16 7.80144C18.6693 7.80144 18.9862 7.81192 20.0412 7.8596C21.0162 7.904 21.5452 8.0676 21.8982 8.2036C22.3651 8.38456 22.6982 8.60184 23.0485 8.9516C23.3987 9.30136 23.6147 9.63496 23.7965 10.1018C23.9338 10.4538 24.0962 10.9839 24.1405 11.9589C24.189 13.0138 24.1986 13.3296 24.1986 16.0001C24.1986 18.6706 24.189 18.9863 24.1405 20.0413C24.0961 21.0162 23.9329 21.5462 23.7965 21.8983C23.6147 22.3652 23.3982 22.6983 23.0485 23.0478C22.6987 23.3972 22.3651 23.614 21.8982 23.7958C21.5462 23.933 21.0162 24.0954 20.0412 24.1398C18.9871 24.1882 18.6705 24.1979 16 24.1979C13.3295 24.1979 13.0138 24.1882 11.96 24.1398ZM11.8772 6.06056C10.8126 6.10904 10.0852 6.27784 9.44992 6.52504C8.792 6.78032 8.23504 7.1228 7.67848 7.67848C7.12192 8.23416 6.78032 8.792 6.52504 9.44992C6.27784 10.0856 6.10904 10.8126 6.06056 11.8772C6.01128 12.9434 6 13.2843 6 16C6 18.7157 6.01128 19.0566 6.06056 20.1228C6.10904 21.1874 6.27784 21.9144 6.52504 22.5501C6.78032 23.2076 7.122 23.7661 7.67848 24.3215C8.23496 24.877 8.792 25.219 9.44992 25.475C10.0864 25.7222 10.8126 25.891 11.8772 25.9394C12.944 25.9879 13.2843 26 16 26C18.7157 26 19.0566 25.9887 20.1228 25.9394C21.1874 25.891 21.9144 25.7222 22.5501 25.475C23.2076 25.219 23.765 24.8772 24.3215 24.3215C24.8781 23.7658 25.219 23.2076 25.475 22.5501C25.7222 21.9144 25.8918 21.1874 25.9394 20.1228C25.9879 19.0558 25.9992 18.7157 25.9992 16C25.9992 13.2843 25.9879 12.9434 25.9394 11.8772C25.891 10.8126 25.7222 10.0852 25.475 9.44992C25.219 8.7924 24.8772 8.23504 24.3215 7.67848C23.7658 7.12192 23.2076 6.78032 22.5509 6.52504C21.9144 6.27784 21.1874 6.10824 20.1236 6.06056C19.0574 6.01208 18.7165 6 16.0008 6C13.2851 6 12.944 6.01128 11.8772 6.06056Z" fill="white"/>
<defs>
<radialGradient id="paint0_radial_391_2351" cx="0" cy="0" r="1" gradientUnits="userSpaceOnUse" gradientTransform="translate(6.61491 38.4665) rotate(-49.945) scale(48.4491 32.0047)">
<stop offset="0.073" stop-color="#EACC7B"/>
<stop offset="0.184" stop-color="#ECAA59"/>
<stop offset="0.307" stop-color="#EF802E"/>
<stop offset="0.358" stop-color="#EF6D3A"/>
<stop offset="0.46" stop-color="#F04B50"/>
<stop offset="0.516" stop-color="#F03E58"/>
<stop offset="0.689" stop-color="#DB359E"/>
<stop offset="0.724" stop-color="#CE37A4"/>
<stop offset="0.789" stop-color="#AC3CB4"/>
<stop offset="0.877" stop-color="#7544CF"/>
<stop offset="0.98" stop-color="#2B4FF2"/>
</radialGradient>
</defs>
</svg>

<svg width="32" height="32" fill="none" xmlns="http://www.w3.org/2000/svg"><rect width="32" height="32" rx="16" fill="url(#paint0_radial_391_2351)"/><path d="M12.667 16a3.333 3.333 0 116.667 0 3.333 3.333 0 01-6.667 0zm-1.802 0a5.135 5.135 0 1010.27 0 5.135 5.135 0 00-10.27 0zm9.273-5.338a1.2 1.2 0 101.2-1.2 1.2 1.2 0 00-1.2 1.2zM11.96 24.14c-.975-.045-1.505-.207-1.857-.344a3.109 3.109 0 01-1.15-.748 3.086 3.086 0 01-.748-1.15c-.138-.352-.3-.882-.344-1.857-.049-1.054-.058-1.37-.058-4.04 0-2.671.01-2.987.058-4.042.044-.975.208-1.504.344-1.857.181-.467.398-.8.748-1.15.35-.35.682-.567 1.15-.748.352-.138.882-.3 1.857-.344C13.014 7.81 13.33 7.8 16 7.8s2.986.01 4.041.059c.975.044 1.504.208 1.857.344.467.18.8.398 1.15.748.35.35.567.683.749 1.15.137.352.3.882.343 1.857.049 1.055.059 1.37.059 4.041 0 2.67-.01 2.986-.059 4.041-.044.975-.207 1.505-.343 1.857a3.1 3.1 0 01-.748 1.15 3.11 3.11 0 01-1.15.748c-.353.137-.883.3-1.858.344-1.054.048-1.37.058-4.041.058-2.67 0-2.986-.01-4.04-.058zm-.083-18.08c-1.064.049-1.792.218-2.427.465a4.905 4.905 0 00-1.772 1.153A4.886 4.886 0 006.525 9.45c-.247.636-.416 1.363-.464 2.427C6.01 12.943 6 13.284 6 16s.011 3.057.06 4.123c.049 1.064.218 1.791.465 2.427a4.888 4.888 0 001.153 1.771 4.916 4.916 0 001.772 1.154c.636.247 1.363.416 2.427.464 1.067.049 1.407.061 4.123.061s3.057-.011 4.123-.06c1.064-.049 1.791-.218 2.427-.465a4.917 4.917 0 001.771-1.154 4.899 4.899 0 001.154-1.77c.247-.637.417-1.364.464-2.428.049-1.067.06-1.407.06-4.123s-.011-3.057-.06-4.123c-.048-1.064-.217-1.792-.464-2.427a4.918 4.918 0 00-1.154-1.772 4.893 4.893 0 00-1.77-1.153c-.637-.247-1.364-.417-2.427-.464C19.057 6.012 18.717 6 16 6s-3.057.011-4.124.06z" fill="#fff"/><defs><radialGradient id="paint0_radial_391_2351" cx="0" cy="0" r="1" gradientUnits="userSpaceOnUse" gradientTransform="rotate(-49.945 44.605 12.131) scale(48.4491 32.0047)"><stop offset=".073" stop-color="#EACC7B"/><stop offset=".184" stop-color="#ECAA59"/><stop offset=".307" stop-color="#EF802E"/><stop offset=".358" stop-color="#EF6D3A"/><stop offset=".46" stop-color="#F04B50"/><stop offset=".516" stop-color="#F03E58"/><stop offset=".689" stop-color="#DB359E"/><stop offset=".724" stop-color="#CE37A4"/><stop offset=".789" stop-color="#AC3CB4"/><stop offset=".877" stop-color="#7544CF"/><stop offset=".98" stop-color="#2B4FF2"/></radialGradient></defs></svg>
